assets/icons/euro-green.svg

<?xml version="1.0" encoding="UTF-8"?>
<svg width="19px" height="22px" viewBox="0 0 19 22" version="1.1" xmlns="http://www.w3.org/2000/svg" xmlns:xlink="http://www.w3.org/1999/xlink">
    <!-- Generator: Sketch 62 (91390) - https://sketch.com -->
    <title>Path</title>
    <desc>Created with Sketch.</desc>
    <g id="Page-1" stroke="none" stroke-width="1" fill="none" fill-rule="evenodd">
        <g id="euro-icon" fill="#03CCAB" fill-rule="nonzero">
            <path d="M18.4684402,19.706811 C18.5525601,19.9110432 18.5782117,20.0971213 18.5154043,20.2567543 C18.4543999,20.4118044 18.313046,20.5320252 18.1060955,20.6271364 C17.5335233,20.8909111 16.9342085,21.1054847 16.3300181,21.2710742 C14.0064222,21.9110256 11.6826458,21.935003 9.37663255,21.1874834 C6.60277308,20.2882867 4.76221049,18.3987649 3.66333087,15.7481008 C3.48998948,15.3240689 3.36579697,14.8786506 3.23448558,14.4346666 L0.696898592,13.9612236 L0.25,12.0326 L2.7771,11.6065 L2.7771,9.8822 L0.67633,9.8822 L0.25,7.95303 L3.20965258,7.52691 C3.89954168,5.24685765 4.97034058,3.51675371 6.65157479,2.21614044 C7.94782896,1.20973697 9.44976072,0.659817602 11.0572484,0.401632022 C13.3523061,0.0348917323 15.5756622,0.348034482 17.7317148,1.18666807 C18.1176074,1.39577697 18.356054,1.575947 18.467817,1.76981445 C18.5687315,1.94486387 18.5357858,2.12358998 18.4501679,2.32998165 C18.2047755,2.92526972 17.9593389,3.51603661 17.6910499,4.09795327 C17.6041943,4.28690056 17.5095442,4.42093023 17.3762171,4.48729346 C16.5588507,4.42903387 16.2390001,4.34458271 15.919468,4.26026793 C15.4989878,4.14931605 15.0790371,4.03865113 14.6556198,3.95295769 C13.0350031,3.61856633 11.4293192,3.60890471 9.85618481,4.23041868 C8.36140642,4.82398542 7.49325377,6.00575256 6.91592165,7.47749767 L11.8495,7.52691 L12.2758,9.45604 L6.37572237,9.8822 C6.36636233,10.3079473 6.37023721,10.7295454 6.37138028,11.1684091 L11.8406137,11.6065891 L12.2758,13.5356 L6.73240069,13.9617 C7.32415666,15.847036 8.31876776,17.3074528 10.2752895,17.9220869 C11.7197373,18.3784126 13.1878615,18.3531115 14.650668,18.0474146 C15.0728516,17.960935 15.4906363,17.8507395 15.9089914,17.7402569 C16.2215866,17.6577042 16.5345125,17.5750189 16.8496412,17.5026295 C17.0675695,17.4528784 17.2386533,17.4436462 17.3766539,17.5109479 C17.5142573,17.5780558 17.6093059,17.717264 17.7003236,17.9163936 C17.9729773,18.5069444 18.2229073,19.1066655 18.4684402,19.706811 Z" id="Path"></path>
        </g>
    </g>
</svg>

<svg width="19" height="22" xmlns="http://www.w3.org/2000/svg"><path d="M18.468 19.707c.085.204.11.39.047.55-.06.155-.202.275-.409.37a11.56 11.56 0 0 1-1.776.644c-2.324.64-4.647.664-6.953-.084-2.774-.899-4.615-2.788-5.714-5.439-.173-.424-.297-.87-.429-1.313L.697 13.96.25 12.033l2.527-.426V9.882h-2.1L.25 7.953l2.96-.426c.69-2.28 1.76-4.01 3.442-5.31C7.948 1.21 9.45.66 11.057.401c2.295-.367 4.519-.054 6.675.785.386.209.624.389.736.583.1.175.068.354-.018.56-.245.595-.49 1.186-.759 1.768-.087.189-.181.323-.315.39-.817-.059-1.137-.143-1.457-.228a22.35 22.35 0 0 0-1.263-.307c-1.621-.334-3.227-.344-4.8.277-1.495.594-2.363 1.776-2.94 3.247l4.934.05.426 1.929-5.9.426c-.01.426-.006.848-.005 1.286l5.47.439.435 1.929-5.544.426c.592 1.885 1.587 3.345 3.543 3.96 1.445.456 2.913.431 4.376.125.422-.086.84-.196 1.258-.307.313-.082.626-.165.94-.237.219-.05.39-.06.528.008.137.067.232.206.323.405.273.59.523 1.19.768 1.79Z" fill="#03CCAB" fill-rule="nonzero"/></svg>
